public/library/bitget-wallet-token-text-dark.svg

<svg width="1623" height="256" viewBox="0 0 1623 256" fill="none" xmlns="http://www.w3.org/2000/svg">
<g clip-path="url(#clip0_1542_6419)">
<rect width="256" height="256" rx="60" fill="white"/>
<path d="M106.241 37.6137C95.9065 37.6084 85.5894 37.6031 75.2185 37.619C68.9476 37.619 66.5955 45.4918 71.2593 50.1551L141.857 120.753C144.06 122.768 145.434 124.959 145.485 127.846C145.434 130.733 144.06 132.923 141.857 134.939L71.2593 205.537C66.5955 210.2 68.9476 218.073 75.2185 218.073C85.5894 218.089 95.9065 218.083 106.241 218.078C111.416 218.075 116.594 218.073 121.787 218.073C128.579 218.073 132.62 214.444 136.249 210.815L199.919 147.145C205 142.063 209.547 135.316 209.485 127.846C209.547 120.375 205 113.628 199.919 108.547L136.249 44.8768C132.62 41.2479 128.579 37.619 121.787 37.619C116.594 37.619 111.416 37.6163 106.241 37.6137Z" fill="#001F29"/>
<path d="M1601.73 208.139C1579.27 208.139 1568.77 196.418 1568.77 175.662V119.011H1559.98C1556.31 119.011 1554.12 116.814 1554.12 113.151V101.674C1554.12 98.0115 1556.31 95.8138 1559.98 95.8138H1568.77V67.2442C1568.77 63.5815 1570.96 61.3838 1574.63 61.3838H1593.43C1597.09 61.3838 1599.29 63.5815 1599.29 67.2442V95.8138H1617.36C1621.02 95.8138 1623.22 98.0115 1623.22 101.674V113.151C1623.22 116.814 1621.02 119.011 1617.36 119.011H1599.29V170.779C1599.29 183.965 1607.35 184.453 1614.43 184.453H1616.14C1619.8 184.453 1622 186.651 1622 190.313V202.278C1622 205.941 1619.8 208.139 1616.14 208.139H1601.73Z" fill="white"/>
<path d="M1493.17 210.58C1458.75 210.58 1436.04 185.429 1436.04 151.976C1436.04 118.523 1458.01 93.6157 1491.95 93.6157C1525.4 93.6157 1545.91 118.523 1545.91 151.976V154.418C1545.91 158.08 1543.72 160.278 1540.05 160.278H1465.34C1468.27 175.418 1479.26 184.452 1493.17 184.452C1504.41 184.452 1511.49 180.546 1516.13 176.394C1518.81 173.953 1521.25 173.464 1524.18 175.662L1535.66 184.208C1538.83 186.65 1539.57 189.092 1537.37 191.778C1527.36 203.499 1511.73 210.58 1493.17 210.58ZM1465.83 140.988H1517.35C1514.66 127.802 1506.36 117.79 1491.95 117.79C1478.04 117.79 1468.76 126.825 1465.83 140.988Z" fill="white"/>
<path d="M1393.23 208.139C1389.56 208.139 1387.37 205.941 1387.37 202.279V55.2794C1387.37 51.6166 1389.56 49.4189 1393.23 49.4189H1412.27C1415.93 49.4189 1418.13 51.6166 1418.13 55.2794L1417.89 202.279C1417.89 205.941 1415.69 208.139 1412.03 208.139H1393.23Z" fill="white"/>
<path d="M1340.4 208.139C1336.74 208.139 1334.54 205.941 1334.54 202.279V55.2794C1334.54 51.6166 1336.74 49.4189 1340.4 49.4189H1359.45C1363.11 49.4189 1365.31 51.6166 1365.31 55.2794L1365.07 202.279C1365.07 205.941 1362.87 208.139 1359.21 208.139H1340.4Z" fill="white"/>
<path d="M1249.73 210.093C1218.96 210.093 1196.5 185.43 1196.5 151.977C1196.5 118.035 1218.96 94.105 1249.73 94.105C1263.89 94.105 1274.39 99.2329 1281.96 107.779V101.675C1281.96 98.0119 1284.16 95.8143 1287.82 95.8143H1306.62C1310.28 95.8143 1312.48 98.0119 1312.48 101.675V202.279C1312.48 205.942 1310.28 208.139 1306.62 208.139H1287.82C1284.16 208.139 1281.96 205.942 1281.96 202.279V196.418C1274.39 204.965 1263.89 210.093 1249.73 210.093ZM1254.12 181.279C1270.97 181.279 1281.96 168.826 1281.96 151.977C1281.96 135.128 1270.97 122.675 1254.12 122.675C1237.28 122.675 1226.04 135.128 1226.04 151.977C1226.04 168.826 1237.28 181.279 1254.12 181.279Z" fill="white"/>
<path d="M1037.19 208.139C1033.77 208.139 1031.33 206.43 1030.35 203.255L981.274 56.0119C980.053 52.105 982.006 49.4189 986.157 49.4189H1007.4C1010.82 49.4189 1013.26 51.1282 1014.24 54.3026L1046.22 150.511L1077.97 54.3026C1078.94 51.1282 1081.14 49.4189 1084.56 49.4189H1097.5C1100.92 49.4189 1103.36 51.1282 1104.34 54.3026L1135.35 146.605L1166.11 54.3026C1167.09 51.1282 1169.53 49.4189 1172.95 49.4189H1194.19C1198.34 49.4189 1200.29 52.105 1199.07 56.0119L1150 203.255C1149.02 206.43 1146.58 208.139 1143.16 208.139H1126.31C1122.89 208.139 1120.45 206.43 1119.47 203.255L1090.17 114.616L1060.87 203.255C1059.9 206.43 1057.45 208.139 1054.04 208.139H1037.19Z" fill="white"/>
<path d="M904.354 208.139C881.89 208.139 871.39 196.418 871.39 175.662V119.011H862.6C858.938 119.011 856.74 116.814 856.74 113.151V101.674C856.74 98.0115 858.938 95.8138 862.6 95.8138H871.39V67.2442C871.39 63.5815 873.588 61.3838 877.251 61.3838H896.052C899.714 61.3838 901.912 63.5815 901.912 67.2442V95.8138H919.98C923.643 95.8138 925.841 98.0115 925.841 101.674V113.151C925.841 116.814 923.643 119.011 919.98 119.011H901.912V170.779C901.912 183.965 909.969 184.453 917.05 184.453H918.76C922.422 184.453 924.62 186.651 924.62 190.313V202.278C924.62 205.941 922.422 208.139 918.76 208.139H904.354Z" fill="white"/>
<path d="M795.801 210.58C761.373 210.58 738.665 185.429 738.665 151.976C738.665 118.523 760.64 93.6157 794.58 93.6157C828.032 93.6157 848.542 118.523 848.542 151.976V154.418C848.542 158.08 846.344 160.278 842.682 160.278H767.966C770.896 175.418 781.883 184.452 795.801 184.452C807.033 184.452 814.114 180.546 818.753 176.394C821.439 173.953 823.881 173.464 826.811 175.662L838.287 184.208C841.461 186.65 842.193 189.092 839.996 191.778C829.985 203.499 814.358 210.58 795.801 210.58ZM768.454 140.988H819.974C817.288 127.802 808.986 117.79 794.58 117.79C780.662 117.79 771.384 126.825 768.454 140.988Z" fill="white"/>
<path d="M660.68 256C642.855 256 627.717 249.895 617.217 240.127C614.287 237.441 614.776 234.511 617.706 231.825L628.693 222.546C631.379 220.104 634.065 220.349 636.995 222.546C644.809 228.895 653.355 230.36 660.68 230.36C671.179 230.36 690.224 224.5 690.224 200.325V196.174C682.655 204.721 671.912 210.093 657.75 210.093C626.984 210.093 604.765 185.43 604.765 151.977C604.765 118.523 626.984 94.105 657.75 94.105C671.912 94.105 682.655 99.2329 690.224 108.024V101.675C690.224 98.0119 692.422 95.8143 696.084 95.8143H714.886C718.548 95.8143 720.746 98.0119 720.746 101.675V200.325C720.746 232.558 699.503 256 660.68 256ZM662.145 181.279C678.993 181.279 690.224 168.826 690.224 151.977C690.224 135.128 678.993 122.675 662.145 122.675C645.297 122.675 634.309 135.128 634.309 151.977C634.309 168.826 645.297 181.279 662.145 181.279Z" fill="white"/>
<path d="M574.449 208.139C551.986 208.139 541.486 196.418 541.486 175.662V119.011H532.696C529.033 119.011 526.836 116.814 526.836 113.151V101.674C526.836 98.0115 529.033 95.8138 532.696 95.8138H541.486V67.2442C541.486 63.5815 543.684 61.3838 547.346 61.3838H566.147C569.81 61.3838 572.008 63.5815 572.008 67.2442V95.8138H590.076C593.739 95.8138 595.936 98.0115 595.936 101.674V113.151C595.936 116.814 593.739 119.011 590.076 119.011H572.008V170.779C572.008 183.965 580.065 184.453 587.146 184.453H588.855C592.518 184.453 594.715 186.651 594.715 190.313V202.278C594.715 205.941 592.518 208.139 588.855 208.139H574.449Z" fill="white"/>
<path d="M495.323 79.2091C487.022 79.2091 478.476 72.8603 478.476 62.1162C478.476 51.6162 487.022 46 495.323 46C503.381 46 512.171 51.6162 512.171 62.1162C512.171 72.8603 503.381 79.2091 495.323 79.2091ZM485.801 208.139C482.138 208.139 479.941 205.941 479.941 202.278V101.674C479.941 98.0114 482.138 95.8137 485.801 95.8137H504.846C508.509 95.8137 510.706 98.0114 510.706 101.674L510.462 202.278C510.462 205.941 508.264 208.139 504.602 208.139H485.801Z" fill="white"/>
<path d="M341.86 208.139C338.198 208.139 336 205.941 336 202.279V55.2794C336 51.6166 338.198 49.4189 341.86 49.4189H409.984C434.401 49.4189 456.132 65.291 456.132 94.1048C456.132 109.244 450.272 119.5 441.238 125.849C453.446 132.686 461.992 144.651 461.992 162.232C461.992 191.046 438.796 208.139 414.379 208.139H341.86ZM367.498 113.64H404.856C416.332 113.64 423.657 106.802 423.657 95.8141C423.657 84.8258 416.332 78.2328 404.856 78.2328H367.498V113.64ZM367.498 179.325H409.251C421.948 179.325 429.517 170.535 429.517 159.546C429.517 148.558 421.46 139.767 409.251 139.767H367.498V179.325Z" fill="white"/>
</g>
<defs>
<clipPath id="clip0_1542_6419">
<rect width="1623" height="256" fill="white"/>
</clipPath>
</defs>
</svg>

<svg xmlns="http://www.w3.org/2000/svg" width="1623" height="256" fill="none" viewBox="0 0 1623 256"><g clip-path="url(#a)"><rect width="256" height="256" fill="#fff" rx="60"/><path fill="#001f29" d="M106.241 37.614c-10.335-.006-20.652-.01-31.022.005-6.271 0-8.623 7.873-3.96 12.536l70.598 70.598c2.203 2.015 3.577 4.206 3.628 7.093-.051 2.887-1.425 5.077-3.628 7.093l-70.598 70.598c-4.663 4.663-2.311 12.536 3.96 12.536 10.37.016 20.688.01 31.022.005 5.175-.003 10.353-.005 15.546-.005 6.792 0 10.833-3.629 14.462-7.258l63.67-63.67c5.081-5.082 9.628-11.829 9.566-19.299.062-7.471-4.485-14.218-9.566-19.299l-63.67-63.67c-3.629-3.63-7.67-7.258-14.462-7.258-5.193 0-10.371-.003-15.546-.005"/><path fill="#fff" d="M1601.73 208.139c-22.46 0-32.96-11.721-32.96-32.477v-56.651h-8.79c-3.67 0-5.86-2.197-5.86-5.86v-11.477c0-3.663 2.19-5.86 5.86-5.86h8.79v-28.57c0-3.663 2.19-5.86 5.86-5.86h18.8c3.66 0 5.86 2.197 5.86 5.86v28.57h18.07c3.66 0 5.86 2.198 5.86 5.86v11.477c0 3.663-2.2 5.86-5.86 5.86h-18.07v51.768c0 13.186 8.06 13.674 15.14 13.674h1.71c3.66 0 5.86 2.198 5.86 5.86v11.965c0 3.663-2.2 5.861-5.86 5.861zM1493.17 210.58c-34.42 0-57.13-25.151-57.13-58.604s21.97-58.36 55.91-58.36c33.45 0 53.96 24.907 53.96 58.36v2.442c0 3.662-2.19 5.86-5.86 5.86h-74.71c2.93 15.14 13.92 24.174 27.83 24.174 11.24 0 18.32-3.906 22.96-8.058 2.68-2.441 5.12-2.93 8.05-.732l11.48 8.546c3.17 2.442 3.91 4.884 1.71 7.57-10.01 11.721-25.64 18.802-44.2 18.802m-27.34-69.592h51.52c-2.69-13.186-10.99-23.198-25.4-23.198-13.91 0-23.19 9.035-26.12 23.198M1393.23 208.139c-3.67 0-5.86-2.198-5.86-5.86v-147c0-3.662 2.19-5.86 5.86-5.86h19.04c3.66 0 5.86 2.198 5.86 5.86l-.24 147c0 3.662-2.2 5.86-5.86 5.86zM1340.4 208.139c-3.66 0-5.86-2.198-5.86-5.86v-147c0-3.662 2.2-5.86 5.86-5.86h19.05c3.66 0 5.86 2.198 5.86 5.86l-.24 147c0 3.662-2.2 5.86-5.86 5.86zM1249.73 210.093c-30.77 0-53.23-24.663-53.23-58.116 0-33.942 22.46-57.872 53.23-57.872 14.16 0 24.66 5.128 32.23 13.674v-6.104c0-3.663 2.2-5.86 5.86-5.86h18.8c3.66 0 5.86 2.197 5.86 5.86v100.604c0 3.663-2.2 5.86-5.86 5.86h-18.8c-3.66 0-5.86-2.197-5.86-5.86v-5.861c-7.57 8.547-18.07 13.675-32.23 13.675m4.39-28.814c16.85 0 27.84-12.453 27.84-29.302s-10.99-29.302-27.84-29.302c-16.84 0-28.08 12.453-28.08 29.302s11.24 29.302 28.08 29.302M1037.19 208.139c-3.42 0-5.86-1.709-6.84-4.884L981.274 56.012c-1.221-3.907.732-6.593 4.883-6.593h21.243c3.42 0 5.86 1.71 6.84 4.884l31.98 96.208 31.75-96.208c.97-3.175 3.17-4.884 6.59-4.884h12.94c3.42 0 5.86 1.71 6.84 4.884l31.01 92.302 30.76-92.302c.98-3.175 3.42-4.884 6.84-4.884h21.24c4.15 0 6.1 2.686 4.88 6.593L1150 203.255c-.98 3.175-3.42 4.884-6.84 4.884h-16.85c-3.42 0-5.86-1.709-6.84-4.884l-29.3-88.639-29.3 88.639c-.97 3.175-3.42 4.884-6.83 4.884zM904.354 208.139c-22.464 0-32.964-11.721-32.964-32.477v-56.651h-8.79c-3.662 0-5.86-2.197-5.86-5.86v-11.477c0-3.663 2.198-5.86 5.86-5.86h8.79v-28.57c0-3.663 2.198-5.86 5.861-5.86h18.801c3.662 0 5.86 2.197 5.86 5.86v28.57h18.068c3.663 0 5.861 2.198 5.861 5.86v11.477c0 3.663-2.198 5.86-5.861 5.86h-18.068v51.768c0 13.186 8.057 13.674 15.138 13.674h1.71c3.662 0 5.86 2.198 5.86 5.86v11.965c0 3.663-2.198 5.861-5.86 5.861zM795.801 210.58c-34.428 0-57.136-25.151-57.136-58.604s21.975-58.36 55.915-58.36c33.452 0 53.962 24.907 53.962 58.36v2.442c0 3.662-2.198 5.86-5.86 5.86h-74.716c2.93 15.14 13.917 24.174 27.835 24.174 11.232 0 18.313-3.906 22.952-8.058 2.686-2.441 5.128-2.93 8.058-.732l11.476 8.546c3.174 2.442 3.906 4.884 1.709 7.57-10.011 11.721-25.638 18.802-44.195 18.802m-27.347-69.592h51.52c-2.686-13.186-10.988-23.198-25.394-23.198-13.918 0-23.196 9.035-26.126 23.198M660.68 256c-17.825 0-32.963-6.105-43.463-15.873-2.93-2.686-2.441-5.616.489-8.302l10.987-9.279c2.686-2.442 5.372-2.197 8.302 0 7.814 6.349 16.36 7.814 23.685 7.814 10.499 0 29.544-5.86 29.544-30.035v-4.151c-7.569 8.547-18.312 13.919-32.474 13.919-30.766 0-52.985-24.663-52.985-58.116s22.219-57.872 52.985-57.872c14.162 0 24.905 5.128 32.474 13.919v-6.349c0-3.663 2.198-5.86 5.86-5.86h18.802c3.662 0 5.86 2.197 5.86 5.86v98.65c0 32.233-21.243 55.675-60.066 55.675m1.465-74.721c16.848 0 28.079-12.453 28.079-29.302s-11.231-29.302-28.079-29.302-27.836 12.453-27.836 29.302 10.988 29.302 27.836 29.302M574.449 208.139c-22.463 0-32.963-11.721-32.963-32.477v-56.651h-8.79c-3.663 0-5.86-2.197-5.86-5.86v-11.477c0-3.663 2.197-5.86 5.86-5.86h8.79v-28.57c0-3.663 2.198-5.86 5.86-5.86h18.801c3.663 0 5.861 2.197 5.861 5.86v28.57h18.068c3.663 0 5.86 2.198 5.86 5.86v11.477c0 3.663-2.197 5.86-5.86 5.86h-18.068v51.768c0 13.186 8.057 13.674 15.138 13.674h1.709c3.663 0 5.86 2.198 5.86 5.86v11.965c0 3.663-2.197 5.861-5.86 5.861zM495.323 79.21c-8.301 0-16.847-6.35-16.847-17.094 0-10.5 8.546-16.116 16.847-16.116 8.058 0 16.848 5.616 16.848 16.116 0 10.744-8.79 17.093-16.848 17.093m-9.522 128.929c-3.663 0-5.86-2.198-5.86-5.861V101.674c0-3.663 2.197-5.86 5.86-5.86h19.045c3.663 0 5.86 2.197 5.86 5.86l-.244 100.604c0 3.663-2.198 5.861-5.86 5.861zM341.86 208.139c-3.662 0-5.86-2.198-5.86-5.86v-147c0-3.662 2.198-5.86 5.86-5.86h68.124c24.417 0 46.148 15.872 46.148 44.686 0 15.139-5.86 25.395-14.894 31.744 12.208 6.837 20.754 18.802 20.754 36.383 0 28.814-23.196 45.907-47.613 45.907zm25.638-94.499h37.358c11.476 0 18.801-6.838 18.801-17.826s-7.325-17.581-18.801-17.581h-37.358zm0 65.685h41.753c12.697 0 20.266-8.79 20.266-19.779 0-10.988-8.057-19.779-20.266-19.779h-41.753z"/></g><defs><clipPath id="a"><path fill="#fff" d="M0 0h1623v256H0z"/></clipPath></defs></svg>
